!!!COM: Sakalouski, Nester
!!!CDT: 1902-1950
!!!OTL: National Anthem, Belarus
!!!ENC: Davis, Matthew J.
!!This Anthem does not have words, thus only the top-line melody has been encoded
**kern
*clefG2
*k[b-]
*F:
*M2/4
=1-
2ff
==2
4a
8.a
16b-
=3
4cc
4cc
=4
4a
8.a
16b-
=5
4cc
4cc
=6
4b-
8b-
8a
=7
4g
4g
=8
8.a
16g
8a
8b-
=9
8cc
16en
16f
16g
16a
16b-
16cc
=10
4dd
8.dd
16cc
=11
8dd
8ee-
8dd
8cc
=12
4b-
8.b-
16a
=13
8b-
8dd
8cc
8b-
=14
4cc
8dd
8dd
=15
4cc
8.cc
16b-
=16
4a
8.g
16g
=17
2f
=18
4g
8.e
16f
=19
4g
8g
8a
=20
4b-
8b-
8a
=21
4g
4g
=22
4a
8.f
16g
=23
4a
8a
8b-
=24
4cc
8.cc
16b-
=25
4a
8b-
8cc
=26
!Begin repeat section
4dd
8.dd
16cc
=27
8dd
8ee-
8dd
8cc
=28
4b-
8.b-
16a
=29
8b-
8dd
8cc
8b-
=30
!First Ending
4cc
8dd
8dd
=31
4cc
8.cc
16b-
=32
4a
8.g
16g
=33
8f
16d
16e-
16f
16a
16b-
16cc
!Repeat to measure 26
=26
4dd
8.dd
16cc
=27
8dd
8ee-
8dd
8cc
=28
4b-
8.b-
16a
=29
8b-
8dd
8cc
8b-
=34
!Second Ending
4ff
8dd
8dd
=35
4cc
8.cc
16b-
=36
4a
8.cc
16cc
=37
2ff
==|!
*-
